images/sefi.svg

<svg width="28" height="28" viewBox="0 0 28 28" fill="none" xmlns="http://www.w3.org/2000/svg">
<mask id="path-1-inside-1" fill="white">
<path fill-rule="evenodd" clip-rule="evenodd" d="M14 21C17.866 21 21 17.866 21 14C21 10.134 17.866 7 14 7C10.134 7 7 10.134 7 14C7 17.866 10.134 21 14 21ZM18 14C18 16.2091 16.2091 18 14 18C11.7909 18 10 16.2091 10 14C10 11.7909 11.7909 10 14 10C16.2091 10 18 11.7909 18 14Z"/>
<path fill-rule="evenodd" clip-rule="evenodd" d="M14 28C21.732 28 28 21.732 28 14C28 6.26801 21.732 0 14 0C6.26801 0 0 6.26801 0 14C0 21.732 6.26801 28 14 28ZM25 14C25 20.0751 20.0751 25 14 25C7.92487 25 3 20.0751 3 14C3 7.92487 7.92487 3 14 3C20.0751 3 25 7.92487 25 14Z"/>
</mask>
<path d="M14 28C21.732 28 28 21.732 28 14H22C22 18.4183 18.4183 22 14 22V28ZM0 14C0 21.732 6.26801 28 14 28V22C9.58172 22 6 18.4183 6 14H0ZM14 0C6.26801 0 0 6.26801 0 14H6C6 9.58172 9.58172 6 14 6V0ZM28 14C28 6.26801 21.732 0 14 0V6C18.4183 6 22 9.58172 22 14H28ZM25 14C25 20.0751 20.0751 25 14 25V31C23.3888 31 31 23.3888 31 14H25ZM14 3C20.0751 3 25 7.92487 25 14H31C31 4.61116 23.3888 -3 14 -3V3ZM3 14C3 7.92487 7.92487 3 14 3V-3C4.61116 -3 -3 4.61116 -3 14H3ZM14 25C7.92487 25 3 20.0751 3 14H-3C-3 23.3888 4.61116 31 14 31V25ZM14 21C17.866 21 21 17.866 21 14H15C15 14.5523 14.5523 15 14 15V21ZM7 14C7 17.866 10.134 21 14 21V15C13.4477 15 13 14.5523 13 14H7ZM14 7C10.134 7 7 10.134 7 14H13C13 13.4477 13.4477 13 14 13V7ZM21 14C21 10.134 17.866 7 14 7V13C14.5523 13 15 13.4477 15 14H21ZM18 14C18 16.2091 16.2091 18 14 18V24C19.5228 24 24 19.5228 24 14H18ZM14 10C16.2091 10 18 11.7909 18 14H24C24 8.47715 19.5228 4 14 4V10ZM10 14C10 11.7909 11.7909 10 14 10V4C8.47715 4 4 8.47715 4 14H10ZM14 18C11.7909 18 10 16.2091 10 14H4C4 19.5228 8.47715 24 14 24V18Z" fill="#8B8BB8" mask="url(#path-1-inside-1)"/>
</svg>

<svg width="28" height="28" fill="none" xmlns="http://www.w3.org/2000/svg"><mask id="a" fill="#fff"><path fill-rule="evenodd" clip-rule="evenodd" d="M14 21a7 7 0 100-14 7 7 0 000 14zm4-7a4 4 0 11-8 0 4 4 0 018 0z"/><path fill-rule="evenodd" clip-rule="evenodd" d="M14 28c7.732 0 14-6.268 14-14S21.732 0 14 0 0 6.268 0 14s6.268 14 14 14zm11-14c0 6.075-4.925 11-11 11S3 20.075 3 14 7.925 3 14 3s11 4.925 11 11z"/></mask><path d="M14 28c7.732 0 14-6.268 14-14h-6a8 8 0 01-8 8v6zM0 14c0 7.732 6.268 14 14 14v-6a8 8 0 01-8-8H0zM14 0C6.268 0 0 6.268 0 14h6a8 8 0 018-8V0zm14 14c0-7.732-6.268-14-14-14v6a8 8 0 018 8h6zm-3 0c0 6.075-4.925 11-11 11v6c9.389 0 17-7.611 17-17h-6zM14 3c6.075 0 11 4.925 11 11h6c0-9.389-7.611-17-17-17v6zM3 14C3 7.925 7.925 3 14 3v-6C4.611-3-3 4.611-3 14h6zm11 11C7.925 25 3 20.075 3 14h-6c0 9.389 7.611 17 17 17v-6zm0-4a7 7 0 007-7h-6a1 1 0 01-1 1v6zm-7-7a7 7 0 007 7v-6a1 1 0 01-1-1H7zm7-7a7 7 0 00-7 7h6a1 1 0 011-1V7zm7 7a7 7 0 00-7-7v6a1 1 0 011 1h6zm-3 0a4 4 0 01-4 4v6c5.523 0 10-4.477 10-10h-6zm-4-4a4 4 0 014 4h6c0-5.523-4.477-10-10-10v6zm-4 4a4 4 0 014-4V4C8.477 4 4 8.477 4 14h6zm4 4a4 4 0 01-4-4H4c0 5.523 4.477 10 10 10v-6z" fill="#8B8BB8" mask="url(#a)"/></svg>
